dist/img/logo_img.svg

<svg width="269" height="213" viewBox="0 0 269 213" fill="none" xmlns="http://www.w3.org/2000/svg">
<line x1="136.742" y1="128.856" x2="96.0638" y2="202.09" stroke="black" stroke-width="20"/>
<ellipse cx="47.8151" cy="203" rx="7.81513" ry="10" fill="black"/>
<ellipse cx="156.185" cy="203" rx="7.81513" ry="10" fill="black"/>
<line x1="48" y1="203" x2="154.286" y2="203" stroke="black" stroke-width="20"/>
<path d="M11.278 8.18304C11.231 8.06353 11.2326 7.99349 11.2385 7.94673C11.2464 7.88426 11.273 7.80229 11.3301 7.71849C11.3871 7.6347 11.4537 7.57994 11.5089 7.54973C11.5503 7.52712 11.6149 7.5 11.7433 7.5H204.55C204.756 7.5 204.94 7.62574 205.015 7.817L257.722 141.817C257.769 141.936 257.767 142.007 257.762 142.053C257.754 142.116 257.727 142.198 257.67 142.282C257.613 142.365 257.546 142.42 257.491 142.45C257.45 142.473 257.385 142.5 257.257 142.5H64.4499C64.2444 142.5 64.0599 142.374 63.9846 142.183L11.278 8.18304Z" fill="black" stroke="black" stroke-width="15"/>
<circle cx="203.5" cy="8.5" r="7.5" fill="white"/>
<circle cx="255.5" cy="141.5" r="7.5" fill="white"/>
<line x1="203.556" y1="8.64232" x2="93.5562" y2="206.642" stroke="white" stroke-width="15"/>
<line x1="202.978" y1="8.11013" x2="256.267" y2="143.392" stroke="white" stroke-width="15"/>
<circle cx="50.5" cy="202.5" r="7.5" fill="white"/>
<circle cx="154.5" cy="202.5" r="7.5" fill="white"/>
<line x1="52" y1="202.5" x2="154" y2="202.5" stroke="white" stroke-width="15"/>
<circle cx="112.5" cy="82.5" r="7.5" fill="white"/>
<line x1="113.286" y1="82.5" x2="229.857" y2="82.5" stroke="white" stroke-width="15"/>
<line x1="203.369" y1="9.43168" x2="95.0418" y2="204.057" stroke="black" stroke-width="10"/>
<circle cx="203.5" cy="9" r="5" fill="black"/>
<ellipse cx="53.1218" cy="202.5" rx="7.12185" ry="5" fill="black"/>
<ellipse cx="151.878" cy="202.5" rx="7.12185" ry="5" fill="black"/>
<line x1="54.5462" y1="202.5" x2="151.403" y2="202.5" stroke="black" stroke-width="10"/>
<line x1="203.652" y1="9.23378" x2="255.99" y2="142.101" stroke="black" stroke-width="10"/>
<circle cx="255.7" cy="141.5" r="5" fill="black"/>
<ellipse cx="113.319" cy="82.5" rx="5.31863" ry="5" fill="black"/>
<line x1="114.382" y1="82.5" x2="232" y2="82.5" stroke="black" stroke-width="10"/>
</svg>

<svg width="269" height="213" fill="none" xmlns="http://www.w3.org/2000/svg"><path stroke="#000" stroke-width="20" d="M136.742 128.856L96.064 202.09"/><ellipse cx="47.815" cy="203" rx="7.815" ry="10" fill="#000"/><ellipse cx="156.185" cy="203" rx="7.815" ry="10" fill="#000"/><path stroke="#000" stroke-width="20" d="M48 203h106.286"/><path d="M11.278 8.183a.455.455 0 01-.04-.236.535.535 0 01.092-.229.534.534 0 01.179-.168.455.455 0 01.234-.05H204.55a.5.5 0 01.465.317l52.707 134c.047.119.045.19.04.236a.54.54 0 01-.092.229.539.539 0 01-.179.168.448.448 0 01-.234.05H64.45a.5.5 0 01-.465-.317l-52.707-134z" fill="#000" stroke="#000" stroke-width="15"/><circle cx="203.5" cy="8.5" r="7.5" fill="#fff"/><circle cx="255.5" cy="141.5" r="7.5" fill="#fff"/><path stroke="#fff" stroke-width="15" d="M203.556 8.642l-110 198M202.978 8.11l53.289 135.282"/><circle cx="50.5" cy="202.5" r="7.5" fill="#fff"/><circle cx="154.5" cy="202.5" r="7.5" fill="#fff"/><path stroke="#fff" stroke-width="15" d="M52 202.5h102"/><circle cx="112.5" cy="82.5" r="7.5" fill="#fff"/><path stroke="#fff" stroke-width="15" d="M113.286 82.5h116.571"/><path stroke="#000" stroke-width="10" d="M203.369 9.432L95.042 204.057"/><circle cx="203.5" cy="9" r="5" fill="#000"/><ellipse cx="53.122" cy="202.5" rx="7.122" ry="5" fill="#000"/><ellipse cx="151.878" cy="202.5" rx="7.122" ry="5" fill="#000"/><path stroke="#000" stroke-width="10" d="M54.546 202.5h96.857M203.652 9.234l52.338 132.867"/><circle cx="255.7" cy="141.5" r="5" fill="#000"/><ellipse cx="113.319" cy="82.5" rx="5.319" ry="5" fill="#000"/><path stroke="#000" stroke-width="10" d="M114.382 82.5H232"/></svg>
